X:995
T:James Byrne's
M:9/8
L:1/8
R:slip jig
K:D
dfa afd dcd|Bcd e/2f/2ed cBA|dfa afd dcd|1 Bcd ecA d2A:|2 Bcd ecA def||
!|:ecA ~A3 ecA|d2e fdf agf|ecA ~A3 ecA|1 d2e fdc def:|2 d2e fdc d2A||
